data/icons/scalable/actions/mailing-address-symbolic.svg

<?xml version="1.0" encoding="UTF-8"?>
<svg height="16px" viewBox="0 0 16 16" width="16px" xmlns="http://www.w3.org/2000/svg">
    <path d="m 8 1 c -2.210938 0 -4 1.789062 -4 4 v 10 h 8 v -10 c 0 -2.210938 -1.789062 -4 -4 -4 z m -3 4 h 6 v 1 h -6 z m 0 3 h 6 v 4 h -6 z m 2.1875 1 l 0.8125 0.4375 l 0.75 -0.4375 z m 2.8125 0.46875 l -2 1.09375 l -2 -1.03125 v 1.46875 h 4 z m 0 0" fill="#222222"/>
</svg>

<svg xmlns="http://www.w3.org/2000/svg" width="16" height="16" viewBox="0 0 16 16"><path fill="#222" d="M8 1C5.79 1 4 2.79 4 5v10h8V5c0-2.21-1.79-4-4-4M5 5h6v1H5zm0 3h6v4H5zm2.188 1L8 9.438 8.75 9zM10 9.469l-2 1.094L6 9.53V11h4zm0 0"/></svg>
